other/github-actions.svg

<svg width="48" height="48" viewBox="0 0 48 48" fill="none" xmlns="http://www.w3.org/2000/svg">
<path fill-rule="evenodd" clip-rule="evenodd" d="M10 1C14.9707 1 19 5.02932 19 10C19 14.9707 14.9707 19 10 19C5.02932 19 1 14.9707 1 10C1 5.02932 5.02932 1 10 1Z" stroke="#2088FF" stroke-width="2" stroke-linecap="round" stroke-linejoin="round"/>
<path fill-rule="evenodd" clip-rule="evenodd" d="M23 19C26.3137 19 29 21.6863 29 25C29 28.3137 26.3137 31 23 31C19.6863 31 17 28.3137 17 25C17 21.6863 19.6863 19 23 19Z" stroke="#2088FF" stroke-width="2" stroke-linecap="round" stroke-linejoin="round"/>
<path fill-rule="evenodd" clip-rule="evenodd" d="M23 35C26.3137 35 29 37.6863 29 41C29 44.3137 26.3137 47 23 47C19.6863 47 17 44.3137 17 41C17 37.6863 19.6863 35 23 35Z" stroke="#2088FF" stroke-width="2" stroke-linecap="round" stroke-linejoin="round"/>
<path fill-rule="evenodd" clip-rule="evenodd" d="M41 35C44.3137 35 47 37.6863 47 41C47 44.3137 44.3137 47 41 47C37.6863 47 35 44.3137 35 41C35 37.6863 37.6863 35 41 35Z" stroke="#79B8FF" stroke-width="2" stroke-linecap="round" stroke-linejoin="round"/>
<path d="M25.0365 23.6069L21.9673 26.672L20.4766 25.1866" stroke="#2088FF" stroke-width="2" stroke-linecap="round" stroke-linejoin="round"/>
<path fill-rule="evenodd" clip-rule="evenodd" d="M41 19C44.3137 19 47 21.6863 47 25C47 28.3137 44.3137 31 41 31C37.6863 31 35 28.3137 35 25C35 21.6863 37.6863 19 41 19Z" stroke="#2088FF" stroke-width="2" stroke-linecap="round" stroke-linejoin="round"/>
<path d="M43.0365 23.6069L39.9673 26.672L38.4766 25.1866" stroke="#2088FF" stroke-width="2" stroke-linecap="round" stroke-linejoin="round"/>
<path d="M7 6.81201C7 6.02498 7.86709 5.54641 8.533 5.9659L13.6462 9.18692C14.2715 9.58082 14.2682 10.4935 13.6402 10.8829L8.52697 14.0534C7.8608 14.4664 7 13.9873 7 13.2035V6.81201Z" stroke="#2088FF" stroke-width="2" stroke-linecap="round" stroke-linejoin="round"/>
<path d="M9 19V34C9 37.866 12.1772 41 16 41H17" stroke="#2088FF" stroke-width="2" stroke-linecap="round" stroke-linejoin="round"/>
<path d="M16.949 26C17.5013 26 17.949 25.5523 17.949 25C17.949 24.4477 17.5013 24 16.949 24V26ZM8 19.0352C8 22.8817 11.1183 26 14.9648 26V24C12.2228 24 10 21.7772 10 19.0352H8ZM14.9648 26H16.949V24H14.9648V26Z" fill="#2088FF"/>
<path d="M29.0547 25H34.9993" stroke="#2088FF" stroke-width="2" stroke-linecap="round" stroke-linejoin="round"/>
<path fill-rule="evenodd" clip-rule="evenodd" d="M21 40C21.5518 40 22 40.4482 22 41C22 41.5526 21.5518 42 21 42C20.4482 42 20 41.5526 20 41C20 40.4482 20.4482 40 21 40Z" fill="#79B8FF"/>
<path fill-rule="evenodd" clip-rule="evenodd" d="M25 40C25.5518 40 26 40.4482 26 41C26 41.5526 25.5518 42 25 42C24.4482 42 24 41.5526 24 41C24 40.4482 24.4482 40 25 40Z" fill="#79B8FF"/>
<path d="M34.0048 41.0069L32.9922 41.0399" stroke="#79B8FF" stroke-width="2" stroke-linecap="round"/>
</svg>

<svg width="48" height="48" fill="none" xmlns="http://www.w3.org/2000/svg"><path fill-rule="evenodd" clip-rule="evenodd" d="M10 1a9 9 0 019 9 9 9 0 01-9 9 9 9 0 01-9-9 9 9 0 019-9zm13 18a6 6 0 110 12 6 6 0 010-12zm0 16a6 6 0 110 12 6 6 0 010-12z" stroke="#2088FF" stroke-width="2" stroke-linecap="round" stroke-linejoin="round"/><path fill-rule="evenodd" clip-rule="evenodd" d="M41 35a6 6 0 110 12 6 6 0 010-12z" stroke="#79B8FF" stroke-width="2" stroke-linecap="round" stroke-linejoin="round"/><path d="M25.037 23.607l-3.07 3.065-1.49-1.485" stroke="#2088FF" stroke-width="2" stroke-linecap="round" stroke-linejoin="round"/><path fill-rule="evenodd" clip-rule="evenodd" d="M41 19a6 6 0 110 12 6 6 0 010-12z" stroke="#2088FF" stroke-width="2" stroke-linecap="round" stroke-linejoin="round"/><path d="M43.036 23.607l-3.069 3.065-1.49-1.485M7 6.812a1 1 0 011.533-.846l5.113 3.22a1 1 0 01-.006 1.697l-5.113 3.17A1 1 0 017 13.203v-6.39zM9 19v15c0 3.866 3.177 7 7 7h1" stroke="#2088FF" stroke-width="2" stroke-linecap="round" stroke-linejoin="round"/><path d="M16.949 26a1 1 0 100-2v2zM8 19.035A6.965 6.965 0 0014.965 26v-2A4.965 4.965 0 0110 19.035H8zM14.965 26h1.984v-2h-1.984v2z" fill="#2088FF"/><path d="M29.055 25h5.944" stroke="#2088FF" stroke-width="2" stroke-linecap="round" stroke-linejoin="round"/><path fill-rule="evenodd" clip-rule="evenodd" d="M21 40a1 1 0 11-.001 2.001A1 1 0 0121 40zm4 0a1 1 0 11-.001 2.001A1 1 0 0125 40z" fill="#79B8FF"/><path d="M34.005 41.007l-1.013.033" stroke="#79B8FF" stroke-width="2" stroke-linecap="round"/></svg>
